X: 105
T: Harry's Delight
B: 204 Favourite Country Dances
N: Published by Straight & Skillern, London ca.1775
F: http://imslp.org/wiki/204_Favourite_Country_Dances_(Various) p.53 #105
Z: 2014 John Chambers <jc:trillian.mit.edu>
M: C|
L: 1/8
K: D
% - - - - - - - - - - - - - - - - - - - - - - - - -
|:\
a2fa g2eg | gfed cBAG |\
FAc2 GBeg | fedc d2D2 :|\
|:\
A2FA B2dB | AFED AFED |\
A2FA B2dB | AGFE D4 :|
% - - - - - - - - - - - - - - - - - - - - - - - - -
%%begintext align
%% Hands across back again cross over one Cu.
%% Right & Left at top
%%endtext

%%sep 1 1 500
%%sep 1 1 500
